X:1
T:Title
%%score [ ( 1 2 ) ( 3 4 ) ]
L:1/8
M:4/4
K:Bb
V:1 treble nm="S\nA"
V:2 treble 
V:3 bass nm="T\nB"
V:4 bass 
V:1
 B2 d2 d2 BA | G2 B2 B4 | dc B4 A2 | F2 GB B4 | A4 B2 cd | e2 f2 c2 d2 | B4 d2 cB | A2 cd d2 c2 | %8
w: Bless- ed Je- sus _|at Thy Word|We are ga- thered|all to _ hear|Thee; Let o- ur|hearts and souls be|stirred now to _|seek and _ love and|
 c4 B4 | B2 d2 d2 cB | A2 B2 B2 AG | E2 e2 d2 c2 | B2 A2 B4 | B8 |] %14
w: fear Thee|By Thy teach- * ings|sweet and ho- * ly|Drawn from earth to|love thee so-|ley|
V:2
 F2 F2 G2 F2 | E2 G2 F4 | G2 G2 F2 E2 | D2 D2 F4 | F4 F2 G2 | G2 G2 F2 A2 | G2 F2 F2 F2 | %7
 E2 G2 F2 F2 | C4 D4 | F2 F2 F2 G2 | E2 G2 F2 D2 | B,2 E2 F2 G2 | F2 E2 F4 | F8 |] %14
V:3
 D2 B,2 B,2 C2 | B,2 D2 D4 | B,2 D2 D2 C2 | B,2 D2 E2 D2 | D2 C2 D2 DC | B,2 B,2 A,2 A,2 | %6
 B,4 B,2 D2 | E2 D2 B,2 C2 | B,2 A,2 B,4 | D2 B,2 B,2 D2 | C2 D2 D2 B,2 | G,2 G,2 B,2 E2 | %12
 D2 C2 B,4 | B,8 |] %14
V:4
 B,,2 B,,2 G,,2 A,,2 | G,,2 G,,2 B,,4 | G,,2 G,,2 B,,2 C,2 | B,,2 B,,2 D,4 | F,4 B,,2 B,,2 | %5
 B,,2 E,2 F,2 D,2 | D,4 B,,2 B,,2 | C,2 B,,2 B,,2 F,2 | F,4 B,,4 | B,,2 B,,2 B,,2 B,,2 | %10
 C,2 B,,2 D,2 G,2 | E,2 C,2 B,,2 C,2 | F,2 F,2 B,,4 | B,,8 |] %14

